!!!COM: Anon.
!!!OTL: Vai Aninha
!!!OTL: Romanceiro Folclorico do Brasil
!!!CNT: Brasil
!!!OCY: Brasil
!!!ODT: <1971///
!!!PSR: Irmaos Vitale
!!!PSP: Sao Paulo, Brasil
!!!PDT: 1950///
!!!PPE: Rossini Tavares de Lima
!!!PPG: page 54
!! Romance: Cego Ou Ceguinho
!! Place: Aracatuba, Sao Paulo, Brasil
**kern
*clefG2
*k[]
*M2/4
*MM116
=1-
8r
8c
8c
8e
=
4d
4c
=
8r
8f
8f
8g
=
4f
4e
=
8c
8c
8a
8f
=
8e
4g
8e
=
8d
4f
8d
=
4c
4c
=
8c
8c
8a
8f
=
8e
4g
8e
=
8d
4f
8d
=
4c
4c
==
*-
